public/avatar/hat/251.svg

<svg xmlns:xlink="http://www.w3.org/1999/xlink" height="92.9" width="100.7" xmlns="http://www.w3.org/2000/svg"><use height="39.55" transform="translate(12.5 38.15)" width="49.2" xlink:href="#a"/><defs><g id="a" fill-rule="evenodd"><path d="M.5-11.6q2.2.1 3.55 1.05-2.7.55-3.55 1.8l-.3 1.2L4.35-8.9q8.2 3 15 11.2 1 2.3-.8 7.3-.1-.8-1.05-1.8l-.95-.85q1.65 3.15 1.15 5.85-.25 2.05.7 4.85 1.5 4.3 4.65 8.15-1.45 0-3.55-1.4l-1.8-1.45.65 2-2-1.15-3.15-11L-.45 1.6l-6 1.7-5.5 2.65-2.85 4-2 15.15q-4.3 3.15-7.25 2.8l-2.1-.95q2.85-1.65 5.7-7.85-2.6.55-3.9-.45l-.8-1.05q3.85-.15 5.35-4.5-1.25-.6-1.55-2.6l-.1-1.9q1.3-6.8 10.3-10.8-1.05-.45-2.45.25l-1.2.75q-1.8-2.8 2.35-4.85 2.1-1.05 4.5-1.5Q-3.9-11.8.5-11.6" fill="#000102" transform="translate(26.15 11.6)"/><path d="M-5.25 9.85q-.85-1.35-2-2.4l-1.05-.8q-4.35 1.65-3 8 .7 3.15 2.25 6-1.6.3-3.65-1.05l-1.7-1.45q-.85-.05-.85 2.9l.2 3-1.75 1-1.25-.4.9-9.85 3.85-8.25L.95-.7l7.9 4.35 5.85 6.65 3.25 14.35-.5-.25-3.5-1.1-1-6q-3.85 5.5-7.5 5.1 3.2-2.5 2.8-7.9L7.2 9.55q-1-1.2-4.15-2.95L.1 5.05q1.35 1 3.25 6.25-4.65 7.6-8.75 9.5l.75-.9q2.05-5.7-.6-10.05" fill="#03243f" transform="translate(26.15 11.6)"/><path d="M11 2.45q2.15 1 5.6 5.95.1 6.4-8.9 12.9 1-1.5 1.5-5.9.3-1.45-.5-3.9l-.85-2.1Q6.75 7.7 2.2 5.1l-4.35-2.2q2.6 3.4 4 8 0 2.65-4.9 7.65.65-5.45-1.75-9.5l-2.5-2.9q-1.1-.6-2.35.6l-1.05 1.3q-3.05 4.2-1.2 8.55.95 2.15 2.5 3.45-5.45-1.4-8.55-6.55l-1.95-4.85q2.25-6.5 11.25-11.1-.7-1.05-2.95-.7l-2.05.55q2.75-4 5.6-2.85 4.5-5 8.65-4.9-2.1.65-2.9 2.7l-.35 1.95q1.25-.65 6.85-1.65 8.9 4.15 13.25 10.5.65 2 .4 4.4Q15.9 4.9 13.2 3.4L11 2.45" fill="#036bfa" transform="translate(26.15 11.6)"/><path d="m-18.3 12.65 4.9 1.9q-1.7 2.1-2.4 5.7l-.35 3.2q-1.9 1.75-7.5 3.35 2.25-2.75 5.1-9l-4.15.55q3.9-1.25 4.4-5.7m33.4-.1 2 5.1q2.4 5.25 4.1 6.25-3.95-1.95-5.15-4.4 1.65 3.6.65 4.7l-1.9-.65q-.8-7.55-2.35-10l2.65-1" fill="#036bfa" transform="translate(26.15 11.6)"/><path d="m-18.15 12.95 3.35 4-.5 1.5-3.35-4.65.5-.85" fill="#114f93" transform="translate(26.15 11.6)"/><path d="m-17.45 15.35 2.05 1.7-3.05.75-3.4.4q2.75-.4 4.4-2.85" fill="#114f93" transform="translate(26.15 11.6)"/><path d="m-17.8 20.7 1.15-5 1.85 1.5q-1.85 3.25-1.25 6.4-2.9 1.8-5.5 2.55l-2 .45q4.15-2.05 5.75-5.9m33-7.75.35 1-2.25 1.85 1.9-2.85" fill="#114f93" transform="translate(26.15 11.6)"/><path d="m14.85 14.45 1.2 3.4q1.85 3.8 5.15 5.95-4.65-1.2-7.35-8.75l1-.75v.15" fill="#114f93" transform="translate(26.15 11.6)"/><path d="M13.85 15.45h-.15l.85-.75 1.65 4.9q1.65 4.2.6 4.7l-1.1-.6q.65-1.85-1.85-8.25" fill="#114f93" transform="translate(26.15 11.6)"/><path d="M13.3 15.95v-.15l1.25-1.1 2.25 9.6-2.1-.75-1.4-7.6M-2.9-3.2q3.45-2.2 7.1-2l5 2.5q5.55 3.65 8.35 9.5-4.2-3.7-6.2-4.2l.85 1.45q.95 1.85 1.2 3.9.85 6.6-5.2 12.85 2.15-6.35-.5-11.7-6.65-5.65-9.5-6.15l3.85 8.15Q-.7 16.4-2.8 18.35l-.35.6-.7.45q-.45.2.9-.95l.15-.1q1.1-2.2 1.5-4.95.95-6.3-3.5-9.95-3.35 1.5-5.7 4.3-4.6 5.65.7 12.2-3.6-2.85-5.45-6.7-3.65-7.6 5.3-12.3l1.35-1.1Q-7-1.2-5.65-.9l2.75-2.3" fill="#114f93" transform="translate(26.15 11.6)"/><path d="M-8.8-2.55q-.3-.85-2.45-.7l-2.05.35q2.9-2.6 6.15-.95 1.65.8 2.7 2.15l-4.5 2.8q1.5-2 .15-3.65m8.85-7.4Q-1.3-9.3-2.1-7.4l-.55 1.85-2.5.65q1.2-3.2 5.2-5.05" fill="#114f93" transform="translate(26.15 11.6)"/><path d="M7.7 9.1Q6.25 7.45 1.9 5.05l-4.05-2.1Q-.3 7.3-.8 10.8-2.35 4-5.65 4.3q-1.05.1-2.1.9l-.9.75Q-13.5 9.5-12.2 14.8q.55 2.25 1.75 4-4.85-6.55-1.15-12.9Q-9.7 2.55-6.65.6l2.35-.8q1.5-2.35 8-3.5 9.65 3.8 12.65 9L8.7.95q3 2 2.65 7.35.7-4.85.2.5-.5 5.3-2.5 8.15.4-1.85-.2-4.85L8.3 9.75l-.6-.65m-24.35 6 2 2.2q-.95.95-1.2 3.7l-.1 2.6q-.7.7-4.85 2.2 4.5-2.85 4.15-10.7m31.5-2 .7 5.25q.75 5.3 1.15 5.6l-2-.35q-.65-6.3-1.65-7.8l1.8-2.7" fill="#111e38" transform="translate(26.15 11.6)"/><path d="m-15.7 3.1-1.85 5.5q-1.05 1.45 1.75 5.65l3 3.85q-4-2.9-5.65-6.45l-.85-2.95q.1-1 1.85-3.4l1.75-2.2m29.4 2.7 1.2 1.1q1.2 1.2 1.2 1.75.35 3.65-4.15 8.4 5-6 1.75-11.25m-15-15.65q-4.2 2.5-4.35 5.1-.05 1.25.75 2.05l-3.15-2.75Q-4.4-8.6-1.3-9.85" fill="#a6caf4" transform="translate(26.15 11.6)"/><path d="M4.7-.7q1.25-.8 7.65-9 2.95-2.95 4.2-.1.4 4.4-4.1 13.6-3.6.35-6.05-2.05L4.7-.7" fill="#160404" transform="translate(26.15 11.6)"/><path d="M15-6.35q-2.1 7.9-3.05 9.45Q9 3.75 5.4-.4l8.95-9.5q1.75-1.3.65 3.55" fill="#f90507" transform="translate(26.15 11.6)"/><path d="m15.05-6.65-3.1 9.75Q9.05 3.35 6.3.25q5.25-3.15 8.5-10 .75-.65.25 3.1" fill="#a40a0a" transform="translate(26.15 11.6)"/><path d="m11.65 2.6-3-.15-1.05-.9q2.6 2.1 7.2-10.7 1.75-.5-3.15 11.75" fill="#500001" transform="translate(26.15 11.6)"/><path d="m15.5-8-.05.3q-1.35 1.05-3.9.45l.3-.4Q14.25-7 15.5-8m-.8 3.45-.3.4L9.3-4l.3-.35 5.1-.2M5.45-.25l.3-.4q4.5 2.75 7.5 1.1L13.1.8Q9.95 2.55 5.45-.25M8.7-3.7l.35-.35Q10.1-1.2 12.85-.4l-.35.4Q9.7-.9 8.7-3.7" fill="#170c0b" transform="translate(26.15 11.6)"/><path d="m11.7-6.85.35-.35q.4 1.25 3.05 2.05l-.35.4q-2.55-.75-3.05-2.1" fill="#170c0b" transform="translate(26.15 11.6)"/><path d="M-5.95-.25q-2 5.05-7.75 4.45-4.5-9.15-4.05-13.6l1-1.05q1.35-.65 3.15 1.15l7.65 9.05" fill="#160404" transform="translate(26.15 11.6)"/><path d="M-16.25-5.95q-1.05-4.8.65-3.5L-6.65 0q-2.25 2.65-4.6 3.35l-1.95.2-3.05-9.5" fill="#f90507" transform="translate(26.15 11.6)"/><path d="M-16.25-6.2q-.5-3.75.25-3.15 3.25 6.9 8.5 10-1.7 1.95-3.9 2.65l-1.8.25-3.05-9.75" fill="#a40a0a" transform="translate(26.15 11.6)"/><path d="M-13.35-2.55q2.95 5.85 4.6 4.45-1.5 2.15-4.15 1.15L-15.1-3q-2-6-.9-5.7l2.65 6.15" fill="#500001" transform="translate(26.15 11.6)"/><path d="m-16.85-7.25.3-.35q1.2.95 3.75.4l-.3.4q-2.55.55-3.75-.45m.95 3.5.25-.4 5.05.2q.15-.05-.2.4l-5.1-.2m1.35 4.95.3-.35q3 1.7 7.5-1.05.2-.15-.15.35-4.55 2.8-7.65 1.05m4.3-4.55.3-.2Q-11.1-.5-14 .4l.2-.35q2.65-.8 3.55-3.4m-3-3.15.3-.2q-.5 1.5-3.3 2.35l.2-.35 1.3-.55q1.3-.65 1.5-1.25" fill="#170c0b" transform="translate(26.15 11.6)"/></g></defs></svg>

<?xml version="1.0" encoding="UTF-8" standalone="no"?>
<svg xmlns:xlink="http://www.w3.org/1999/xlink" height="92.9px" width="100.7px" xmlns="http://www.w3.org/2000/svg">
  <g transform="matrix(1.0, 0.0, 0.0, 1.0, 38.65, 49.75)">
    <use height="39.55" transform="matrix(1.0, 0.0, 0.0, 1.0, -26.15, -11.6)" width="49.2" xlink:href="#shape0"/>
  </g>
  <defs>
    <g id="shape0" transform="matrix(1.0, 0.0, 0.0, 1.0, 26.15, 11.6)">
      <path d="M0.5 -11.6 Q2.7 -11.5 4.05 -10.55 1.35 -10.0 0.5 -8.75 L0.2 -7.55 4.35 -8.9 Q12.55 -5.9 19.35 2.3 20.35 4.6 18.55 9.6 18.45 8.8 17.5 7.8 L16.55 6.95 Q18.2 10.1 17.7 12.8 17.45 14.85 18.4 17.65 19.9 21.95 23.05 25.8 21.6 25.8 19.5 24.4 L17.7 22.95 18.35 24.95 16.35 23.8 13.2 12.8 -0.45 1.6 -6.45 3.3 -11.95 5.95 -14.8 9.95 -16.8 25.1 Q-21.1 28.25 -24.05 27.9 L-26.15 26.95 Q-23.3 25.3 -20.45 19.1 -23.05 19.65 -24.35 18.65 L-25.15 17.6 Q-21.3 17.45 -19.8 13.1 -21.05 12.5 -21.35 10.5 L-21.45 8.6 Q-20.15 1.8 -11.15 -2.2 -12.2 -2.65 -13.6 -1.95 L-14.8 -1.2 Q-16.6 -4.0 -12.45 -6.05 -10.35 -7.1 -7.95 -7.55 -3.9 -11.8 0.5 -11.6" fill="#000102" fill-rule="evenodd" stroke="none"/>
      <path d="M-5.25 9.85 Q-6.1 8.5 -7.25 7.45 L-8.3 6.65 Q-12.65 8.3 -11.3 14.65 -10.6 17.8 -9.05 20.65 -10.65 20.95 -12.7 19.6 L-14.4 18.15 Q-15.25 18.1 -15.25 21.05 L-15.05 24.05 -16.8 25.05 -18.05 24.65 -17.15 14.8 -13.3 6.55 0.95 -0.7 8.85 3.65 14.7 10.3 17.95 24.65 17.45 24.4 13.95 23.3 12.95 17.3 Q9.1 22.8 5.45 22.4 8.65 19.9 8.25 14.5 L7.2 9.55 Q6.2 8.35 3.05 6.6 L0.1 5.05 Q1.45 6.05 3.35 11.3 -1.3 18.9 -5.4 20.8 L-4.65 19.9 Q-2.6 14.2 -5.25 9.85" fill="#03243f" fill-rule="evenodd" stroke="none"/>
      <path d="M11.0 2.45 Q13.15 3.45 16.6 8.4 16.7 14.8 7.7 21.3 8.7 19.8 9.2 15.4 9.5 13.95 8.7 11.5 L7.85 9.4 Q6.75 7.7 2.2 5.1 L-2.15 2.9 Q0.45 6.3 1.85 10.9 1.85 13.55 -3.05 18.55 -2.4 13.1 -4.8 9.05 L-7.3 6.15 Q-8.4 5.55 -9.65 6.75 L-10.7 8.05 Q-13.75 12.25 -11.9 16.6 -10.95 18.75 -9.4 20.05 -14.85 18.65 -17.95 13.5 L-19.9 8.65 Q-17.65 2.15 -8.65 -2.45 -9.35 -3.5 -11.6 -3.15 L-13.65 -2.6 Q-10.9 -6.6 -8.05 -5.45 -3.55 -10.45 0.6 -10.35 -1.5 -9.7 -2.3 -7.65 L-2.65 -5.7 Q-1.4 -6.35 4.2 -7.35 13.1 -3.2 17.45 3.15 18.1 5.15 17.85 7.55 15.9 4.9 13.2 3.4 L11.0 2.45" fill="#036bfa" fill-rule="evenodd" stroke="none"/>
      <path d="M-18.3 12.65 L-13.4 14.55 Q-15.1 16.65 -15.8 20.25 L-16.15 23.45 Q-18.05 25.2 -23.65 26.8 -21.4 24.05 -18.55 17.8 L-22.7 18.35 Q-18.8 17.1 -18.3 12.65" fill="#036bfa" fill-rule="evenodd" stroke="none"/>
      <path d="M15.1 12.55 L17.1 17.65 Q19.5 22.9 21.2 23.9 17.25 21.95 16.05 19.5 17.7 23.1 16.7 24.2 L14.8 23.55 Q14.0 16.0 12.45 13.55 L15.1 12.55" fill="#036bfa" fill-rule="evenodd" stroke="none"/>
      <path d="M-18.15 12.95 L-14.8 16.95 -15.3 18.45 -18.65 13.8 -18.15 12.95" fill="#114f93" fill-rule="evenodd" stroke="none"/>
      <path d="M-17.45 15.35 L-15.4 17.05 -18.45 17.8 -21.85 18.2 Q-19.1 17.8 -17.45 15.35" fill="#114f93" fill-rule="evenodd" stroke="none"/>
      <path d="M-17.8 20.7 L-16.65 15.7 -14.8 17.2 Q-16.65 20.45 -16.05 23.6 -18.95 25.4 -21.55 26.15 L-23.55 26.6 Q-19.4 24.55 -17.8 20.7" fill="#114f93" fill-rule="evenodd" stroke="none"/>
      <path d="M15.2 12.95 L15.55 13.95 13.3 15.8 15.2 12.95" fill="#114f93" fill-rule="evenodd" stroke="none"/>
      <path d="M14.85 14.45 L16.05 17.85 Q17.9 21.65 21.2 23.8 16.55 22.6 13.85 15.05 L14.85 14.3 14.85 14.45" fill="#114f93" fill-rule="evenodd" stroke="none"/>
      <path d="M13.85 15.45 L13.7 15.45 14.55 14.7 16.2 19.6 Q17.85 23.8 16.8 24.3 L15.7 23.7 Q16.35 21.85 13.85 15.45" fill="#114f93" fill-rule="evenodd" stroke="none"/>
      <path d="M13.3 15.95 L13.3 15.8 14.55 14.7 16.8 24.3 14.7 23.55 13.3 15.95" fill="#114f93" fill-rule="evenodd" stroke="none"/>
      <path d="M-2.9 -3.2 Q0.55 -5.4 4.2 -5.2 L9.2 -2.7 Q14.75 0.95 17.55 6.8 13.35 3.1 11.35 2.6 L12.2 4.05 Q13.15 5.9 13.4 7.95 14.25 14.55 8.2 20.8 10.35 14.45 7.7 9.1 1.05 3.45 -1.8 2.95 L2.05 11.1 Q-0.7 16.4 -2.8 18.35 L-3.15 18.95 -3.85 19.4 Q-4.3 19.6 -2.95 18.45 L-2.8 18.35 Q-1.7 16.15 -1.3 13.4 -0.35 7.1 -4.8 3.45 -8.15 4.95 -10.5 7.75 -15.1 13.4 -9.8 19.95 -13.4 17.1 -15.25 13.25 -18.9 5.65 -9.95 0.95 L-8.6 -0.15 Q-7.0 -1.2 -5.65 -0.9 L-2.9 -3.2" fill="#114f93" fill-rule="evenodd" stroke="none"/>
      <path d="M-8.8 -2.55 Q-9.1 -3.4 -11.25 -3.25 L-13.3 -2.9 Q-10.4 -5.5 -7.15 -3.85 -5.5 -3.05 -4.45 -1.7 L-8.95 1.1 Q-7.45 -0.9 -8.8 -2.55" fill="#114f93" fill-rule="evenodd" stroke="none"/>
      <path d="M0.05 -9.95 Q-1.3 -9.3 -2.1 -7.4 L-2.65 -5.55 -5.15 -4.9 Q-3.95 -8.1 0.05 -9.95" fill="#114f93" fill-rule="evenodd" stroke="none"/>
      <path d="M7.7 9.1 Q6.25 7.45 1.9 5.05 L-2.15 2.95 Q-0.3 7.3 -0.8 10.8 -2.35 4.0 -5.65 4.3 -6.7 4.4 -7.75 5.2 L-8.65 5.95 Q-13.5 9.5 -12.2 14.8 -11.65 17.05 -10.45 18.8 -15.3 12.25 -11.6 5.9 -9.7 2.55 -6.65 0.6 L-4.3 -0.2 Q-2.8 -2.55 3.7 -3.7 13.35 0.1 16.35 5.3 L8.7 0.95 Q11.7 2.95 11.35 8.3 12.05 3.45 11.55 8.8 11.05 14.1 9.05 16.95 9.45 15.1 8.85 12.1 L8.3 9.75 7.7 9.1" fill="#111e38" fill-rule="evenodd" stroke="none"/>
      <path d="M-16.65 15.1 L-14.65 17.3 Q-15.6 18.25 -15.85 21.0 L-15.95 23.6 Q-16.65 24.3 -20.8 25.8 -16.3 22.95 -16.65 15.1" fill="#111e38" fill-rule="evenodd" stroke="none"/>
      <path d="M14.85 13.1 L15.55 18.35 Q16.3 23.65 16.7 23.95 L14.7 23.6 Q14.05 17.3 13.05 15.8 L14.85 13.1" fill="#111e38" fill-rule="evenodd" stroke="none"/>
      <path d="M-15.7 3.1 L-17.55 8.6 Q-18.6 10.05 -15.8 14.25 L-12.8 18.1 Q-16.8 15.2 -18.45 11.65 L-19.3 8.7 Q-19.2 7.7 -17.45 5.3 L-15.7 3.1" fill="#a6caf4" fill-rule="evenodd" stroke="none"/>
      <path d="M13.7 5.8 L14.9 6.9 Q16.1 8.1 16.1 8.65 16.45 12.3 11.95 17.05 16.95 11.05 13.7 5.8" fill="#a6caf4" fill-rule="evenodd" stroke="none"/>
      <path d="M-1.3 -9.85 Q-5.5 -7.35 -5.65 -4.75 -5.7 -3.5 -4.9 -2.7 L-8.05 -5.45 Q-4.4 -8.6 -1.3 -9.85" fill="#a6caf4" fill-rule="evenodd" stroke="none"/>
      <path d="M4.7 -0.7 Q5.95 -1.5 12.35 -9.7 15.3 -12.65 16.55 -9.8 16.95 -5.4 12.45 3.8 8.85 4.15 6.4 1.75 L4.7 -0.7" fill="#160404" fill-rule="evenodd" stroke="none"/>
      <path d="M15.0 -6.35 Q12.9 1.55 11.95 3.1 9.0 3.75 5.4 -0.4 L14.35 -9.9 Q16.1 -11.2 15.0 -6.35" fill="#f90507" fill-rule="evenodd" stroke="none"/>
      <path d="M15.05 -6.65 L11.95 3.1 Q9.05 3.35 6.3 0.25 11.55 -2.9 14.8 -9.75 15.55 -10.4 15.05 -6.65" fill="#a40a0a" fill-rule="evenodd" stroke="none"/>
      <path d="M11.65 2.6 L8.65 2.45 7.6 1.55 Q10.2 3.65 14.8 -9.15 16.55 -9.65 11.65 2.6" fill="#500001" fill-rule="evenodd" stroke="none"/>
      <path d="M15.5 -8.0 L15.45 -7.7 Q14.1 -6.65 11.55 -7.25 L11.85 -7.65 Q14.25 -7.0 15.5 -8.0" fill="#170c0b" fill-rule="evenodd" stroke="none"/>
      <path d="M14.7 -4.55 L14.4 -4.15 9.3 -4.0 9.6 -4.35 14.7 -4.55" fill="#170c0b" fill-rule="evenodd" stroke="none"/>
      <path d="M5.45 -0.25 L5.75 -0.65 Q10.25 2.1 13.25 0.45 L13.1 0.8 Q9.95 2.55 5.45 -0.25" fill="#170c0b" fill-rule="evenodd" stroke="none"/>
      <path d="M8.7 -3.7 L9.05 -4.05 Q10.1 -1.2 12.85 -0.4 L12.5 0.0 Q9.7 -0.9 8.7 -3.7" fill="#170c0b" fill-rule="evenodd" stroke="none"/>
      <path d="M11.7 -6.85 L12.05 -7.2 Q12.45 -5.95 15.1 -5.15 L14.75 -4.75 Q12.2 -5.5 11.7 -6.85" fill="#170c0b" fill-rule="evenodd" stroke="none"/>
      <path d="M-5.95 -0.25 Q-7.95 4.8 -13.7 4.2 -18.2 -4.95 -17.75 -9.4 L-16.75 -10.45 Q-15.4 -11.1 -13.6 -9.3 L-5.95 -0.25" fill="#160404" fill-rule="evenodd" stroke="none"/>
      <path d="M-16.25 -5.95 Q-17.3 -10.75 -15.6 -9.45 L-6.65 0.0 Q-8.9 2.65 -11.25 3.35 L-13.2 3.55 -16.25 -5.95" fill="#f90507" fill-rule="evenodd" stroke="none"/>
      <path d="M-16.25 -6.2 Q-16.75 -9.95 -16.0 -9.35 -12.75 -2.45 -7.5 0.65 -9.2 2.6 -11.4 3.3 L-13.2 3.55 -16.25 -6.2" fill="#a40a0a" fill-rule="evenodd" stroke="none"/>
      <path d="M-13.35 -2.55 Q-10.4 3.3 -8.75 1.9 -10.25 4.05 -12.9 3.05 L-15.1 -3.0 Q-17.1 -9.0 -16.0 -8.7 L-13.35 -2.55" fill="#500001" fill-rule="evenodd" stroke="none"/>
      <path d="M-16.85 -7.25 L-16.55 -7.6 Q-15.35 -6.65 -12.8 -7.2 L-13.1 -6.8 Q-15.65 -6.25 -16.85 -7.25" fill="#170c0b" fill-rule="evenodd" stroke="none"/>
      <path d="M-15.9 -3.75 L-15.65 -4.15 -10.6 -3.95 Q-10.45 -4.0 -10.8 -3.55 L-15.9 -3.75" fill="#170c0b" fill-rule="evenodd" stroke="none"/>
      <path d="M-14.55 1.2 L-14.25 0.85 Q-11.25 2.55 -6.75 -0.2 -6.55 -0.35 -6.9 0.15 -11.45 2.95 -14.55 1.2" fill="#170c0b" fill-rule="evenodd" stroke="none"/>
      <path d="M-10.25 -3.35 L-9.95 -3.55 Q-11.1 -0.5 -14.0 0.4 L-13.8 0.05 Q-11.15 -0.75 -10.25 -3.35" fill="#170c0b" fill-rule="evenodd" stroke="none"/>
      <path d="M-13.25 -6.5 L-12.95 -6.7 Q-13.45 -5.2 -16.25 -4.35 L-16.05 -4.7 -14.75 -5.25 Q-13.45 -5.9 -13.25 -6.5" fill="#170c0b" fill-rule="evenodd" stroke="none"/>
    </g>
  </defs>
</svg>
